humanity-icon-theme/Humanity-Dark/apps/24/nm-stage03-connecting08.svg

<?xml version="1.0" encoding="UTF-8" standalone="no"?>
<!-- Created with Inkscape (http://www.inkscape.org/) -->

<svg
   xmlns:svg="http://www.w3.org/2000/svg"
   xmlns="http://www.w3.org/2000/svg"
   version="1.0"
   width="24"
   height="24"
   id="svg3315">
  <defs
     id="defs3317" />
  <path
     d="M 14.50913,9.0246479 17.009356,4.6941292"
     id="path3279"
     style="opacity:0.2;fill:none;stroke:#878787;stroke-width:1px;stroke-linecap:round;stroke-linejoin:miter;stroke-opacity:1" />
  <path
     d="m 8.0031197,20.293392 2.5013563,-4.33248"
     id="path3281"
     style="fill:none;stroke:#878787;stroke-width:1px;stroke-linecap:round;stroke-linejoin:miter;stroke-opacity:1" />
  <path
     d="M 13.54301,8.6244691 14.837223,3.7944024"
     id="path2629"
     style="opacity:0.175;fill:none;stroke:#878787;stroke-width:1px;stroke-linecap:round;stroke-linejoin:miter;stroke-opacity:1" />
  <path
     d="M 10.175253,21.19312 11.47005,16.360865"
     id="path2631"
     style="opacity:0.875;fill:none;stroke:#878787;stroke-width:1px;stroke-linecap:round;stroke-linejoin:miter;stroke-opacity:1" />
  <path
     d="m 12.506237,8.487975 0,-5.0004526"
     id="path3403"
     style="opacity:0.15;fill:none;stroke:#878787;stroke-width:1px;stroke-linecap:round;stroke-linejoin:miter;stroke-opacity:1" />
  <path
     d="m 12.506239,21.5 -2e-6,-5.002717"
     id="path3405"
     style="opacity:0.75;fill:none;stroke:#878787;stroke-width:1px;stroke-linecap:round;stroke-linejoin:miter;stroke-opacity:1" />
  <path
     d="M 11.469463,8.6244699 10.175252,3.7944017"
     id="path3407"
     style="opacity:0.125;fill:none;stroke:#878787;stroke-width:1px;stroke-linecap:round;stroke-linejoin:miter;stroke-opacity:1" />
  <path
     d="M 14.837222,21.193119 13.542426,16.360865"
     id="path3409"
     style="opacity:0.675;fill:none;stroke:#878787;stroke-width:1px;stroke-linecap:round;stroke-linejoin:miter;stroke-opacity:1" />
  <path
     d="M 10.503343,9.0246484 8.0031177,4.6941299"
     id="path3415"
     style="opacity:0.1;fill:none;stroke:#878787;stroke-width:1px;stroke-linecap:round;stroke-linejoin:miter;stroke-opacity:1" />
  <path
     d="m 17.009356,20.293393 -2.501358,-4.33248"
     id="path3417"
     style="opacity:0.6;fill:none;stroke:#878787;stroke-width:1px;stroke-linecap:round;stroke-linejoin:miter;stroke-opacity:1" />
  <path
     d="M 9.6737176,9.6612446 6.1378647,6.1253894"
     id="path3419"
     style="opacity:0.075;fill:none;stroke:#878787;stroke-width:1px;stroke-linecap:round;stroke-linejoin:miter;stroke-opacity:1" />
  <path
     d="M 18.874609,18.862134 15.337154,15.324679"
     id="path3421"
     style="opacity:0.55;fill:none;stroke:#878787;stroke-width:1px;stroke-linecap:round;stroke-linejoin:miter;stroke-opacity:1" />
  <path
     d="M 9.0371248,10.490869 4.7066069,7.9906419"
     id="path3423"
     style="opacity:0.05;fill:none;stroke:#878787;stroke-width:1px;stroke-linecap:round;stroke-linejoin:miter;stroke-opacity:1" />
  <path
     d="m 20.305869,16.996879 -4.33248,-2.501358"
     id="path3425"
     style="opacity:0.5;fill:none;stroke:#878787;stroke-width:1px;stroke-linecap:round;stroke-linejoin:miter;stroke-opacity:1" />
  <path
     d="M 8.6369473,11.456989 3.8068804,10.162775"
     id="path3427"
     style="opacity:0.025;fill:none;stroke:#878787;stroke-width:1px;stroke-linecap:round;stroke-linejoin:miter;stroke-opacity:1" />
  <path
     d="M 21.205595,14.824748 16.373342,13.529949"
     id="path3429"
     style="opacity:0.45;fill:none;stroke:#878787;stroke-width:1px;stroke-linecap:round;stroke-linejoin:miter;stroke-opacity:1" />
  <path
     d="m 21.512476,12.49376 -5.002716,2e-6"
     id="path3433"
     style="opacity:0.4;fill:none;stroke:#878787;stroke-width:1px;stroke-linecap:round;stroke-linejoin:miter;stroke-opacity:1" />
  <path
     d="m 21.205595,10.162776 -4.832254,1.294798"
     id="path3437"
     style="opacity:0.35;fill:none;stroke:#878787;stroke-width:0.99999994px;stroke-linecap:round;stroke-linejoin:miter;stroke-opacity:1" />
  <path
     d="M 20.305869,7.9906413 15.973388,10.492"
     id="path2407"
     style="opacity:0.3;fill:none;stroke:#878787;stroke-width:1px;stroke-linecap:round;stroke-linejoin:miter;stroke-opacity:1" />
  <path
     d="M 18.874608,6.1253883 15.337153,9.662844"
     id="path2413"
     style="opacity:0.25;fill:none;stroke:#878787;stroke-width:1px;stroke-linecap:round;stroke-linejoin:miter;stroke-opacity:1" />
  <path
     d="m 6.1378666,18.862134 3.537455,-3.537456"
     id="path2401"
     style="opacity:0;fill:none;stroke:#878787;stroke-width:1px;stroke-linecap:round;stroke-linejoin:miter;stroke-opacity:1" />
  <path
     d="M 3.8068805,14.824747 8.6391336,13.529948"
     id="path2405"
     style="opacity:0;fill:none;stroke:#878787;stroke-width:1px;stroke-linecap:round;stroke-linejoin:miter;stroke-opacity:1" />
  <path
     d="M 4.7066075,16.99688 9.0390861,14.49552"
     id="path2410"
     style="opacity:0;fill:none;stroke:#878787;stroke-width:1px;stroke-linecap:round;stroke-linejoin:miter;stroke-opacity:1" />
  <path
     d="m 3.4999994,12.493761 5.0027163,0"
     id="path2414"
     style="opacity:0;fill:none;stroke:#878787;stroke-width:1px;stroke-linecap:round;stroke-linejoin:miter;stroke-opacity:1" />
</svg>

<?xml version="1.0" encoding="UTF-8" standalone="no"?>
<!-- Created with Inkscape (http://www.inkscape.org/) -->
<svg id="svg3315" xmlns="http://www.w3.org/2000/svg" height="24" width="24" version="1.0">
 <path id="path3279" style="opacity:.2;stroke:#878787;stroke-linecap:round;stroke-width:1px;fill:none" d="m14.509 9.0246 2.5-4.3305"/>
 <path id="path3281" style="stroke:#878787;stroke-linecap:round;stroke-width:1px;fill:none" d="m8.0031 20.293 2.5014-4.3325"/>
 <path id="path2629" style="opacity:.175;stroke:#878787;stroke-linecap:round;stroke-width:1px;fill:none" d="m13.543 8.6245 1.294-4.8301"/>
 <path id="path2631" style="opacity:.875;stroke:#878787;stroke-linecap:round;stroke-width:1px;fill:none" d="m10.175 21.193 1.295-4.832"/>
 <path id="path3403" style="opacity:.15;stroke:#878787;stroke-linecap:round;stroke-width:1px;fill:none" d="m12.506 8.488v-5.0005"/>
 <path id="path3405" style="opacity:.75;stroke:#878787;stroke-linecap:round;stroke-width:1px;fill:none" d="m12.506 21.5-0.000002-5.0027"/>
 <path id="path3407" style="opacity:.125;stroke:#878787;stroke-linecap:round;stroke-width:1px;fill:none" d="m11.469 8.6245-1.294-4.8301"/>
 <path id="path3409" style="opacity:.675;stroke:#878787;stroke-linecap:round;stroke-width:1px;fill:none" d="m14.837 21.193-1.295-4.832"/>
 <path id="path3415" style="opacity:.1;stroke:#878787;stroke-linecap:round;stroke-width:1px;fill:none" d="m10.503 9.0246-2.4999-4.3305"/>
 <path id="path3417" style="opacity:.6;stroke:#878787;stroke-linecap:round;stroke-width:1px;fill:none" d="m17.009 20.293-2.5014-4.3325"/>
 <path id="path3419" style="opacity:.075;stroke:#878787;stroke-linecap:round;stroke-width:1px;fill:none" d="m9.6737 9.6612-3.5358-3.5358"/>
 <path id="path3421" style="opacity:.55;stroke:#878787;stroke-linecap:round;stroke-width:1px;fill:none" d="m18.875 18.862-3.538-3.537"/>
 <path id="path3423" style="opacity:.05;stroke:#878787;stroke-linecap:round;stroke-width:1px;fill:none" d="m9.0371 10.491-4.3305-2.5004"/>
 <path id="path3425" style="opacity:.5;stroke:#878787;stroke-linecap:round;stroke-width:1px;fill:none" d="m20.306 16.997-4.3325-2.5014"/>
 <path id="path3427" style="opacity:.025;stroke:#878787;stroke-linecap:round;stroke-width:1px;fill:none" d="m8.6369 11.457-4.83-1.294"/>
 <path id="path3429" style="opacity:.45;stroke:#878787;stroke-linecap:round;stroke-width:1px;fill:none" d="m21.206 14.825-4.833-1.295"/>
 <path id="path3433" style="opacity:.4;stroke:#878787;stroke-linecap:round;stroke-width:1px;fill:none" d="m21.512 12.494-5.0027 0.000002"/>
 <path id="path3437" style="opacity:.35;stroke:#878787;stroke-linecap:round;stroke-width:1px;fill:none" d="m21.206 10.163-4.8323 1.2948"/>
 <path id="path2407" style="opacity:.3;stroke:#878787;stroke-linecap:round;stroke-width:1px;fill:none" d="m20.306 7.9906-4.333 2.5014"/>
 <path id="path2413" style="opacity:.25;stroke:#878787;stroke-linecap:round;stroke-width:1px;fill:none" d="m18.875 6.1254-3.538 3.5374"/>
 <path id="path2401" style="opacity:0;stroke-width:1px" d="m6.1379 18.862 3.5375-3.5375"/>
 <path id="path2405" style="opacity:0;stroke-width:1px" d="m3.8069 14.825 4.8322-1.295"/>
 <path id="path2410" style="opacity:0;stroke-width:1px" d="m4.7066 16.997 4.3325-2.501"/>
 <path id="path2414" style="opacity:0;stroke-width:1px" d="m3.5 12.494h5.0027"/>
</svg>
